svgs/1F64C-1F3FF.svg

<svg xmlns="http://www.w3.org/2000/svg" xmlns:xlink="http://www.w3.org/1999/xlink" preserveAspectRatio="none" viewBox="0 0 72 72"><defs><path id="e" fill="#8E726A" d="M43.75 48.6q-.85-1.55-2.5-1.75-1.8-.25-3.05.7-1.3 1-1.55 3l-2.35 22.3q0 .9-.65 1-.65.15-.75-.8-.15-2-.5-14.25-.35-12.15-.3-13.1.05-1.95-.9-3.35-1.05-1.45-2.7-1.5-1.8-.05-2.95 1.05-1.15 1.1-1.2 3.1L24 72.3q0 .85-.95.95-.9 0-1-.8-.55-4.4-1.3-13.6-.7-7.75-.75-9.3-.05-1.95-1.1-3.3-1.1-1.4-2.75-1.35-1.85.1-2.9 1.2-1.1 1.15-1 3.15l1.2 24.15q.1.9-.95 1.2h-.05q-.5.1-.95-.15-.45-.25-.6-.75-2.55-10.6-3.05-13.4-.3-1.95-1.55-3.15-1.3-1.3-2.95-1-1.75.25-2.65 1.5-.95 1.3-.6 3.3.1.45 1.35 7.95 1.4 8.1 2.3 12 .45 1.65.7 4.05.55 5.75.9 8.4.75 10.9 6.1 15.7 4.6 4.15 13.7 4.55l12.5-.15q4.25-.15 8.45-4.15 3.25-3.1 3.9-5.2l10.8-25.65q.5-1-.1-1.95-.55-.95-1.7-1.1-3.25-.45-5.75.95-2.45 1.35-3.85 4.3l-3.75 8.7q-.25.8-1.15.75-.85 0-1.05-.8-.55-2.5-.55-7.35l.1-4.35q-.15-2.35.5-13.6.55-10.65.75-11.95.3-1.95-.5-3.45z"/><path id="f" fill="#8E726A" d="M41.05 121.55q.55-7.1 2.6-10.25-1.1 0-31.85-2.45 1.4.4 1.35 9.8 0 4.75-.3 9.35H40.9q-.15-2.9.15-6.45z"/><g id="g"><path fill="#8E726A" d="M22.95 63.4l.2-.1-14.65-.55q2.2.95 5.7 1.1l7-.05q.8 0 1.75-.4z"/><path fill="#563E37" d="M24.55 62.6l.05-.1-.25.25-1 .5q-.1.05-.2.05l-.2.1q-.95.4-1.75.4l-7 .05q-3.5-.15-5.7-1.1-.3-.15-.6-.35-.45-.25-.85-.6.25.9.35 2.9 2.55 1.25 6.65 1.4l7.15-.05q1.1 0 2.25-.4.4-1.95 1.1-3.05z"/></g><path id="h" fill="#8E726A" d="M43.75 48.6q-.85-1.55-2.5-1.75-1.8-.25-3.05.7-1.3 1-1.55 3l-2.35 22.3q0 .9-.65 1-.65.15-.75-.8-.15-2-.5-14.25-.35-12.15-.3-13.1.05-1.95-.9-3.35-1.05-1.45-2.7-1.5-1.8-.05-2.95 1.05-1.15 1.1-1.2 3.1L24 72.3q0 .85-.95.95-.9 0-1-.8-.55-4.4-1.3-13.6-.7-7.75-.75-9.3-.05-1.95-1.1-3.3-1.1-1.4-2.75-1.35-1.85.1-2.9 1.2-1.1 1.15-1 3.15l1.2 24.15q.1.9-.95 1.2h-.05q-.5.1-.95-.15-.45-.25-.6-.75-2.55-10.6-3.05-13.4-.3-1.95-1.55-3.15-1.3-1.3-2.95-1-1.75.25-2.65 1.5-.95 1.3-.6 3.3.1.45 1.35 7.95 1.4 8.1 2.3 12 .45 1.65.7 4.05.55 5.75.9 8.4.75 10.9 6.1 15.7 4.6 4.15 13.7 4.55l12.5-.15q4.25-.15 8.45-4.15 3.25-3.1 3.9-5.2l10.8-25.65q.5-1-.1-1.95-.55-.95-1.7-1.1-3.25-.45-5.75.95-2.45 1.35-3.85 4.3l-3.75 8.7q-.25.8-1.15.75-.85 0-1.05-.8-.55-2.5-.55-7.35l.1-4.35q-.15-2.35.5-13.6.55-10.65.75-11.95.3-1.95-.5-3.45z"/><path id="i" fill="#8E726A" d="M41.05 121.55q.55-7.1 2.6-10.25-1.1 0-31.85-2.45 1.4.4 1.35 9.8 0 4.75-.3 9.35H40.9q-.15-2.9.15-6.45z"/><g id="j"><path fill="#8E726A" d="M21.2 63.8q.8 0 1.75-.4l.2-.1-14.65-.55q2.2.95 5.7 1.1l7-.05z"/><path fill="#563E37" d="M22.95 63.4q-.95.4-1.75.4l-7 .05q-3.5-.15-5.7-1.1-.3-.15-.6-.35-.45-.25-.85-.6.25.9.35 2.9 2.55 1.25 6.65 1.4l7.15-.05q1.1 0 2.25-.4.4-1.95 1.1-3.05l.05-.1-.25.25-1 .5q-.1.05-.2.05l-.2.1z"/></g><path id="a" fill="none" stroke="#444" stroke-linecap="round" stroke-linejoin="miter" stroke-miterlimit="10" stroke-width="2" d="M29.588 12.094l-2.335-8.69"/><path id="b" fill="none" stroke="#444" stroke-linecap="round" stroke-linejoin="miter" stroke-miterlimit="10" stroke-width="2" d="M18.478 18.506l-6.356-6.356"/><path id="c" fill="none" stroke="#444" stroke-linecap="round" stroke-linejoin="miter" stroke-miterlimit="10" stroke-width="2" d="M53.494 18.506l6.356-6.356"/><path id="d" fill="none" stroke="#444" stroke-linecap="round" stroke-linejoin="miter" stroke-miterlimit="10" stroke-width="2" d="M42.384 12.094l2.335-8.69"/></defs><use xlink:href="#a"/><use xlink:href="#b"/><use xlink:href="#c"/><use xlink:href="#d"/><use transform="scale(.5625)" xlink:href="#e"/><use transform="scale(.5625)" xlink:href="#f"/><use xlink:href="#g"/><use transform="matrix(-.56248 0 0 .56248 72 0)" xlink:href="#h"/><use transform="matrix(-.56248 0 0 .56248 72 0)" xlink:href="#i"/><use transform="matrix(-1 0 0 1 72 0)" xlink:href="#j"/></svg>

<svg xmlns="http://www.w3.org/2000/svg" version="1.1" xmlns:xlink="http://www.w3.org/1999/xlink" preserveAspectRatio="none" x="0px" y="0px" width="72px" height="72px" viewBox="0 0 72 72">
<defs>
<g id="Layer0_1_MEMBER_4_MEMBER_0_MEMBER_0_FILL">
<path fill="#8E726A" stroke="none" d="
M 43.75 48.6
Q 42.9 47.05 41.25 46.85 39.45 46.6 38.2 47.55 36.9 48.55 36.65 50.55
L 34.3 72.85
Q 34.3 73.75 33.65 73.85 33 74 32.9 73.05 32.75 71.05 32.4 58.8 32.05 46.65 32.1 45.7 32.15 43.75 31.2 42.35 30.15 40.9 28.5 40.85 26.7 40.8 25.55 41.9 24.4 43 24.35 45
L 24 72.3
Q 24 73.15 23.05 73.25 22.15 73.25 22.05 72.45 21.5 68.05 20.75 58.85 20.05 51.1 20 49.55 19.95 47.6 18.9 46.25 17.8 44.85 16.15 44.9 14.3 45 13.25 46.1 12.15 47.25 12.25 49.25
L 13.45 73.4
Q 13.55 74.3 12.5 74.6
L 12.45 74.6
Q 11.95 74.7 11.5 74.45 11.05 74.2 10.9 73.7 8.35 63.1 7.85 60.3 7.55 58.35 6.3 57.15 5 55.85 3.35 56.15 1.6 56.4 0.7 57.65 -0.25 58.95 0.1 60.95 0.2 61.4 1.45 68.9 2.85 77 3.75 80.9 4.2 82.55 4.45 84.95 5 90.7 5.35 93.35 6.1 104.25 11.45 109.05 16.05 113.2 25.15 113.6
L 37.65 113.45
Q 41.9 113.3 46.1 109.3 49.35 106.2 50 104.1
L 60.8 78.45
Q 61.3 77.45 60.7 76.5 60.15 75.55 59 75.4 55.75 74.95 53.25 76.35 50.8 77.7 49.4 80.65
L 45.65 89.35
Q 45.4 90.15 44.5 90.1 43.65 90.1 43.45 89.3 42.9 86.8 42.9 81.95
L 43 77.6
Q 42.85 75.25 43.5 64 44.05 53.35 44.25 52.05 44.55 50.1 43.75 48.6 Z"/>
</g>

<g id="Layer0_1_MEMBER_4_MEMBER_0_MEMBER_1_FILL">
<path fill="#8E726A" stroke="none" d="
M 41.05 121.55
Q 41.6 114.45 43.65 111.3 42.55 111.3 11.8 108.85 13.2 109.25 13.15 118.65 13.15 123.4 12.85 128
L 40.9 128
Q 40.75 125.1 41.05 121.55 Z"/>
</g>

<g id="Layer0_1_MEMBER_4_MEMBER_1_MEMBER_0_FILL">
<path fill="#8E726A" stroke="none" d="
M 22.95 63.4
Q 23.05 63.35 23.15 63.3
L 8.5 62.75
Q 10.7 63.7 14.2 63.85
L 21.2 63.8
Q 22 63.8 22.95 63.4 Z"/>

<path fill="#563E37" stroke="none" d="
M 24.55 62.6
Q 24.569921875 62.56015625 24.6 62.5 24.473828125 62.626171875 24.35 62.75 23.85 63 23.35 63.25 23.25 63.3 23.15 63.3 23.05 63.35 22.95 63.4 22 63.8 21.2 63.8
L 14.2 63.85
Q 10.7 63.7 8.5 62.75 8.2 62.6 7.9 62.4 7.45 62.15 7.05 61.8 7.3 62.7 7.4 64.7 9.95 65.95 14.05 66.1
L 21.2 66.05
Q 22.3 66.05 23.45 65.65 23.85 63.7 24.55 62.6 Z"/>
</g>

<g id="Layer0_1_MEMBER_5_MEMBER_0_MEMBER_0_FILL">
<path fill="#8E726A" stroke="none" d="
M 43.75 48.6
Q 42.9 47.05 41.25 46.85 39.45 46.6 38.2 47.55 36.9 48.55 36.65 50.55
L 34.3 72.85
Q 34.3 73.75 33.65 73.85 33 74 32.9 73.05 32.75 71.05 32.4 58.8 32.05 46.65 32.1 45.7 32.15 43.75 31.2 42.35 30.15 40.9 28.5 40.85 26.7 40.8 25.55 41.9 24.4 43 24.35 45
L 24 72.3
Q 24 73.15 23.05 73.25 22.15 73.25 22.05 72.45 21.5 68.05 20.75 58.85 20.05 51.1 20 49.55 19.95 47.6 18.9 46.25 17.8 44.85 16.15 44.9 14.3 45 13.25 46.1 12.15 47.25 12.25 49.25
L 13.45 73.4
Q 13.55 74.3 12.5 74.6
L 12.45 74.6
Q 11.95 74.7 11.5 74.45 11.05 74.2 10.9 73.7 8.35 63.1 7.85 60.3 7.55 58.35 6.3 57.15 5 55.85 3.35 56.15 1.6 56.4 0.7 57.65 -0.25 58.95 0.1 60.95 0.2 61.4 1.45 68.9 2.85 77 3.75 80.9 4.2 82.55 4.45 84.95 5 90.7 5.35 93.35 6.1 104.25 11.45 109.05 16.05 113.2 25.15 113.6
L 37.65 113.45
Q 41.9 113.3 46.1 109.3 49.35 106.2 50 104.1
L 60.8 78.45
Q 61.3 77.45 60.7 76.5 60.15 75.55 59 75.4 55.75 74.95 53.25 76.35 50.8 77.7 49.4 80.65
L 45.65 89.35
Q 45.4 90.15 44.5 90.1 43.65 90.1 43.45 89.3 42.9 86.8 42.9 81.95
L 43 77.6
Q 42.85 75.25 43.5 64 44.05 53.35 44.25 52.05 44.55 50.1 43.75 48.6 Z"/>
</g>

<g id="Layer0_1_MEMBER_5_MEMBER_0_MEMBER_1_FILL">
<path fill="#8E726A" stroke="none" d="
M 41.05 121.55
Q 41.6 114.45 43.65 111.3 42.55 111.3 11.8 108.85 13.2 109.25 13.15 118.65 13.15 123.4 12.85 128
L 40.9 128
Q 40.75 125.1 41.05 121.55 Z"/>
</g>

<g id="Layer0_1_MEMBER_5_MEMBER_1_MEMBER_0_FILL">
<path fill="#8E726A" stroke="none" d="
M 21.2 63.8
Q 22 63.8 22.95 63.4 23.05 63.35 23.15 63.3
L 8.5 62.75
Q 10.7 63.7 14.2 63.85
L 21.2 63.8 Z"/>

<path fill="#563E37" stroke="none" d="
M 22.95 63.4
Q 22 63.8 21.2 63.8
L 14.2 63.85
Q 10.7 63.7 8.5 62.75 8.2 62.6 7.9 62.4 7.45 62.15 7.05 61.8 7.3 62.7 7.4 64.7 9.95 65.95 14.05 66.1
L 21.2 66.05
Q 22.3 66.05 23.45 65.65 23.85 63.7 24.55 62.6 24.569921875 62.56015625 24.6 62.5 24.473828125 62.626171875 24.35 62.75 23.85 63 23.35 63.25 23.25 63.3 23.15 63.3 23.05 63.35 22.95 63.4 Z"/>
</g>

<path id="Layer0_1_MEMBER_0_1_STROKES" stroke="#444444" stroke-width="2" stroke-linejoin="miter" stroke-linecap="round" stroke-miterlimit="10" fill="none" d="
M 29.587500000000002 12.09375
L 27.253125 3.4031249999999997"/>

<path id="Layer0_1_MEMBER_1_1_STROKES" stroke="#444444" stroke-width="2" stroke-linejoin="miter" stroke-linecap="round" stroke-miterlimit="10" fill="none" d="
M 18.478125000000002 18.506249999999998
L 12.121875000000001 12.15"/>

<path id="Layer0_1_MEMBER_2_1_STROKES" stroke="#444444" stroke-width="2" stroke-linejoin="miter" stroke-linecap="round" stroke-miterlimit="10" fill="none" d="
M 53.49375 18.506249999999998
L 59.85 12.15"/>

<path id="Layer0_1_MEMBER_3_1_STROKES" stroke="#444444" stroke-width="2" stroke-linejoin="miter" stroke-linecap="round" stroke-miterlimit="10" fill="none" d="
M 42.384375 12.09375
L 44.71875 3.4031249999999997"/>
</defs>

<g id="Layer_1">
<g transform="matrix( 0.5625, 0, 0, 0.5625, 0,0) ">
<use xlink:href="#Layer0_1_MEMBER_0_1_STROKES" transform="matrix( 1.77777099609375, 0, 0, 1.77777099609375, 0,0) "/>
</g>

<g transform="matrix( 0.5625, 0, 0, 0.5625, 0,0) ">
<use xlink:href="#Layer0_1_MEMBER_1_1_STROKES" transform="matrix( 1.77777099609375, 0, 0, 1.77777099609375, 0,0) "/>
</g>

<g transform="matrix( 0.5625, 0, 0, 0.5625, 0,0) ">
<use xlink:href="#Layer0_1_MEMBER_2_1_STROKES" transform="matrix( 1.77777099609375, 0, 0, 1.77777099609375, 0,0) "/>
</g>

<g transform="matrix( 0.5625, 0, 0, 0.5625, 0,0) ">
<use xlink:href="#Layer0_1_MEMBER_3_1_STROKES" transform="matrix( 1.77777099609375, 0, 0, 1.77777099609375, 0,0) "/>
</g>

<g transform="matrix( 0.5625, 0, 0, 0.5625, 0,0) ">
<use xlink:href="#Layer0_1_MEMBER_4_MEMBER_0_MEMBER_0_FILL"/>
</g>

<g transform="matrix( 0.5625, 0, 0, 0.5625, 0,0) ">
<use xlink:href="#Layer0_1_MEMBER_4_MEMBER_0_MEMBER_1_FILL"/>
</g>

<g transform="matrix( 1, 0, 0, 1, 0,0) ">
<use xlink:href="#Layer0_1_MEMBER_4_MEMBER_1_MEMBER_0_FILL"/>
</g>

<g transform="matrix( -0.5624847412109375, 0, 0, 0.5624847412109375, 72,0) ">
<use xlink:href="#Layer0_1_MEMBER_5_MEMBER_0_MEMBER_0_FILL"/>
</g>

<g transform="matrix( -0.5624847412109375, 0, 0, 0.5624847412109375, 72,0) ">
<use xlink:href="#Layer0_1_MEMBER_5_MEMBER_0_MEMBER_1_FILL"/>
</g>

<g transform="matrix( -1, 0, 0, 1, 72,0) ">
<use xlink:href="#Layer0_1_MEMBER_5_MEMBER_1_MEMBER_0_FILL"/>
</g>
</g>
</svg>
